X:1
T:Salve Festa Dies, 79.77 refrain
T:Salve Festa Dies, 79.77 refrain
T:Ralph Vaughan Williams, 1906
T:Public Domain Courtesy of the Cyber Hymnal™
C:Ralph Vaughan Williams, 1906
Z:Public Domain
Z:Courtesy of the Cyber Hymnal™
%%score ( 1 2 ) ( 3 4 )
L:1/8
M:4/4
K:F
V:1 treble 
V:2 treble 
V:3 bass 
V:4 bass 
V:1
|: [A,CF]2 [CFc]2 [DFB]2 AG | [DF]6 [=B,DA]2 | [CG]2 FE F G2 E | D4 C4 | D2 EF G2- [GB]2 | %5
 A4 [DF]2 [=CF-^c]2 [DF-d][CF=c] | [CFA]4 G3 [B,E]-F |1 [A,CF]8!fine! | [DG]2 GG [DA]2 [EG][^FA] | %9
 [DGB]6 cc | d2 cB [_EA]2 BG | [D^F]4 [A,D]4 | [DG]4 [DA]2 [EG][^FA] | [DGB]2 dd c2 A2 | %14
 B2 AA G2 AF | c8 [DF]2 [EG]2 :|2 (3D2 D2 D2 (3_E2 D2 E2 || [A,CF]2 [B,FB]2 [FA]2 GG | F6 GF | %19
 D4 C2- C2 | (3D2 D2 D2 (3E2 F2 G2 | [A,DA]4 [DFB]2 AB | [DF]4 [^CE]3 D | [A,D]4 [CE]4!D.C.! |] %24
V:2
|: x6 E2 | x8 | x2 C2 C4 | C2 =B,2 x4 | x2 C2 D4 | [^CG]2 x8 | x4 [CE-]2 [B,E] x2 |1 x8 | %8
 x2 B,2 x4 | x6 [CG]2 | [DG]4 C2 x2 | x8 | x8 | x2 E2 F4 | D4 D4 | [CE]4 x8 :|2 B,4 B,4 || %17
 x2 B,2 [B,_E]2 x2 | B,2 A,2 B,2- B,2 | B,6 A,2 | B,4 [B,D]4 | x6 D2 | x8 | x8 |] %24
V:3
|: [F,,F,]2 A,,2 B,,2 CB, | A,6 [D,F,]2 | G,4 [A,,F,]2 [E,,C,]2 | [F,,A,]2 [G,,G,-]2 [C,E,G,]4 | %4
 F,4 [G,B,]4 | A,4 [D,,F,]2 F,4 | C,4 [C,,C,]4 x |1 [F,,F,]8 | D,8- | [G,,D,]2 G,2 F,2 _E,2 | %10
 B,,2 G,,2 G,4 | A,4 ^F,4 | D,8- | [G,,D,]2 [B,,G,]2 A,4 | [G,,G,]2 [A,,F,]2 F,4 | C8 x4 :|2 %16
 [B,,F,]4 [G,,_E,]4 || F,,2 D,,2 _E,,2 G,,2 | [B,,D,]2 [C,_E,]2 [D,F,]2 [E,B,]2 | F,4 [F,,F,]4 | %20
 [B,,F,]4 [G,,G,]4 | F,4 [B,,F,]2 [F,,A,][G,,G,] | F,2 G,2 A,2 G,2 | [D,F,]4 [C,G,]4 |] %24
V:4
|: x6 C,2 | D,2 E,2 F,2 x2 | E,2 C,2 x4 | x8 | B,,2 A,,2 G,,2 F,,2 | [E,,G,]2 A,,2 B,,A,, x4 | %6
 x9 |1 x8 | B,,2 G,,2 ^F,,2 D,,2 | x8 | x4 C,2 _E,2 | D,2 E,2 D,2 C,2 | B,,2 G,,2 ^F,,2 D,,2 | %13
 x4 A,,2 D,2 | x4 B,,2 =B,,2 | C,2 B,,2 A,,2 G,,2 x4 :|2 x8 || x8 | x8 | x8 | x8 | D,2 C,2 x4 | %22
 A,,8 | x8 |] %24

